svgs/sharp-solid/dumbbell.svg

<svg xmlns="http://www.w3.org/2000/svg" viewBox="0 0 640 512"><!--! Font Awesome Pro 6.6.0 by @fontawesome - https://fontawesome.com License - https://fontawesome.com/license (Commercial License) Copyright 2024 Fonticons, Inc. --><path d="M192 32L96 32l0 96-64 0 0 96L0 224l0 64 32 0 0 96 64 0 0 96 96 0 0-160 0-32 0-64 0-32 0-160zm32 192l0 64 192 0 0-64-192 0zm224-32l0 32 0 64 0 32 0 160 96 0 0-96 64 0 0-96 32 0 0-64-32 0 0-96-64 0 0-96-96 0 0 160z"/></svg>

<svg xmlns="http://www.w3.org/2000/svg" viewBox="0 0 640 512"><!--! Font Awesome Pro 6.4.2 by @fontawesome - https://fontawesome.com License - https://fontawesome.com/license (Commercial License) Copyright 2023 Fonticons, Inc. --><path d="M192 32H96v96H32v96H0v64H32v96H96v96h96V320 288 224 192 32zm32 192v64H416V224H224zm224-32v32 64 32V480h96V384h64V288h32V224H608V128H544V32H448V192z"/></svg>
